src/assets/outline/SliderHorizontal1.svg

<svg width="24" height="24" viewBox="0 0 24 24"  xmlns="http://www.w3.org/2000/svg">
<path d="M13 22.75H11C7.7 22.75 5.71 22.09 5.34 18.74C5.28 18.29 5.25 17.75 5.25 17V7C5.25 6.25 5.28 5.71 5.35 5.23C5.71 1.91 7.7 1.25 11 1.25H13C16.3 1.25 18.29 1.91 18.66 5.26C18.72 5.71 18.75 6.25 18.75 7V17C18.75 17.75 18.72 18.29 18.65 18.77C18.29 22.09 16.3 22.75 13 22.75ZM11 2.75C7.69 2.75 7.06 3.42 6.84 5.42C6.78 5.85 6.75 6.32 6.75 7V17C6.75 17.68 6.78 18.15 6.83 18.55C7.05 20.58 7.69 21.25 11 21.25H13C16.31 21.25 16.94 20.58 17.16 18.58C17.22 18.16 17.25 17.68 17.25 17V7C17.25 6.33 17.22 5.85 17.17 5.45C16.95 3.42 16.31 2.75 13 2.75H11Z" />
<path d="M5.67 19.4201H5.33C2.24 19.4201 1.25 18.4301 1.25 15.3301V8.67008C1.25 5.57008 2.24 4.58008 5.33 4.58008H5.67C5.84 4.58008 5.98 4.58008 6.14 4.59008C6.35 4.60008 6.54 4.70008 6.67 4.87008C6.8 5.04008 6.86 5.24008 6.83 5.45008C6.78 5.85008 6.75 6.32008 6.75 7.00008V17.0001C6.75 17.6801 6.78 18.1501 6.83 18.5501C6.86 18.7601 6.8 18.9701 6.67 19.1301C6.54 19.2901 6.35 19.3901 6.14 19.4101C5.98 19.4201 5.84 19.4201 5.67 19.4201ZM5.27 6.08008C3.08 6.09008 2.75 6.44008 2.75 8.67008V15.3301C2.75 17.5601 3.08 17.9101 5.27 17.9201C5.26 17.6501 5.25 17.3501 5.25 17.0001V7.00008C5.25 6.65008 5.26 6.35008 5.27 6.08008Z" />
<path d="M18.6702 19.4201H18.3302C18.1602 19.4201 18.0202 19.4201 17.8602 19.4101C17.6502 19.4001 17.4602 19.3001 17.3302 19.1301C17.2002 18.9701 17.1402 18.7601 17.1702 18.5501C17.2302 18.1501 17.2502 17.6701 17.2502 17.0001V7.00008C17.2502 6.33008 17.2202 5.85008 17.1702 5.45008C17.1402 5.24008 17.2002 5.03008 17.3302 4.87008C17.4602 4.71008 17.6502 4.61008 17.8602 4.59008C18.0202 4.58008 18.1602 4.58008 18.3302 4.58008H18.6702C21.7602 4.58008 22.7502 5.57008 22.7502 8.67008V15.3301C22.7502 18.4301 21.7602 19.4201 18.6702 19.4201ZM18.7302 6.08008C18.7402 6.35008 18.7502 6.65008 18.7502 7.00008V17.0001C18.7502 17.3501 18.7402 17.6501 18.7302 17.9201C20.9202 17.9101 21.2502 17.5601 21.2502 15.3301V8.67008C21.2502 6.44008 20.9202 6.09008 18.7302 6.08008Z" />
</svg>

<?xml version="1.0" encoding="UTF-8"?>
<svg width="24" height="24" viewBox="0 0 24 24" xmlns="http://www.w3.org/2000/svg">
 <path d="m13 22.75h-2c-3.3 0-5.29-0.66-5.66-4.01-0.06-0.45-0.09-0.99-0.09-1.74v-10c0-0.75 0.03-1.29 0.1-1.77 0.36-3.32 2.35-3.98 5.65-3.98h2c3.3 0 5.29 0.66 5.66 4.01 0.06 0.45 0.09 0.99 0.09 1.74v10c0 0.75-0.03 1.29-0.1 1.77-0.36 3.32-2.35 3.98-5.65 3.98zm-2-20c-3.31 0-3.94 0.67-4.16 2.67-0.06 0.43-0.09 0.9-0.09 1.58v10c0 0.68 0.03 1.15 0.08 1.55 0.22 2.03 0.86 2.7 4.17 2.7h2c3.31 0 3.94-0.67 4.16-2.67 0.06-0.42 0.09-0.9 0.09-1.58v-10c0-0.67-0.03-1.15-0.08-1.55-0.22-2.03-0.86-2.7-4.17-2.7h-2z"/>
 <path d="m5.67 19.42h-0.34c-3.09 0-4.08-0.99-4.08-4.09v-6.66c0-3.1 0.99-4.09 4.08-4.09h0.34c0.17 0 0.31 0 0.47 0.01 0.21 0.01 0.4 0.11 0.53 0.28s0.19 0.37 0.16 0.58c-0.05 0.4-0.08 0.87-0.08 1.55v10c0 0.68 0.03 1.15 0.08 1.55 0.03 0.21-0.03 0.42-0.16 0.58s-0.32 0.26-0.53 0.28c-0.16 0.01-0.3 0.01-0.47 0.01zm-0.4-13.34c-2.19 0.01-2.52 0.36-2.52 2.59v6.66c0 2.23 0.33 2.58 2.52 2.59-0.01-0.27-0.02-0.57-0.02-0.92v-10c0-0.35 0.01-0.65 0.02-0.92z"/>
 <path d="m18.67 19.42h-0.34c-0.17 0-0.31 0-0.47-0.01-0.21-0.01-0.4-0.11-0.53-0.28-0.13-0.16-0.19-0.37-0.16-0.58 0.06-0.4 0.08-0.88 0.08-1.55v-10c0-0.67-0.03-1.15-0.08-1.55-0.03-0.21 0.03-0.42 0.16-0.58s0.32-0.26 0.53-0.28c0.16-0.01 0.3-0.01 0.47-0.01h0.34c3.09 0 4.08 0.99 4.08 4.09v6.66c0 3.1-0.99 4.09-4.08 4.09zm0.06-13.34c0.01 0.27 0.02 0.57 0.02 0.92v10c0 0.35-0.01 0.65-0.02 0.92 2.19-0.01 2.52-0.36 2.52-2.59v-6.66c0-2.23-0.33-2.58-2.52-2.59z"/>
</svg>
